static/img/icons/function.svg

<svg fill="none" height="26" viewBox="0 0 26 26" width="26" xmlns="http://www.w3.org/2000/svg"><g stroke="#fff" stroke-linejoin="round" stroke-width="1.5"><path d="m19.6 1c1.7552.19429 2.9366.63338 3.8184 1.62575 1.5816 1.77994 1.5816 4.6447 1.5816 10.37425 0 5.7296 0 8.5943-1.5816 10.3743-.8818.9924-2.0632 1.4314-3.8184 1.6257m-13.19999 0c-1.75516-.1943-2.93659-.6333-3.81838-1.6257-1.58163-1.78-1.58163-4.6447-1.58163-10.3743 0-5.72955 0-8.59431 1.58163-10.37425.88179-.99237 2.06322-1.43146 3.81838-1.62575" stroke-linecap="round"/><path d="m9.66666 16.2407c.12577.4428.37934.9259 1.04154.9259 1.1459 0 1.4324-.9259 2.2918-4.1666.8594-3.24076 1.1459-4.16669 2.2917-4.16669.6622 0 .9159.48314 1.0416.92593m-4.7222 2.08336h3.6806" stroke-linecap="round"/><path d="m5.08334 13c0-3.73197 0-5.59795 1.15937-6.75732 1.15938-1.15937 3.02535-1.15937 6.75729-1.15937 3.7319 0 5.5979 0 6.7573 1.15937s1.1594 3.02535 1.1594 6.75732c0 3.7319 0 5.5979-1.1594 6.7573-1.1594 1.1593-3.0254 1.1593-6.7573 1.1593-3.73194 0-5.59791 0-6.75729-1.1593-1.15937-1.1594-1.15937-3.0254-1.15937-6.7573z"/></g></svg>

<svg width="26" height="26" viewBox="0 0 26 26" fill="none" xmlns="http://www.w3.org/2000/svg">
<path d="M19.6 1C21.3552 1.19429 22.5366 1.63338 23.4184 2.62575C25 4.40569 25 7.27045 25 13C25 18.7296 25 21.5943 23.4184 23.3743C22.5366 24.3667 21.3552 24.8057 19.6 25M6.40001 25C4.64485 24.8057 3.46342 24.3667 2.58163 23.3743C1 21.5943 1 18.7296 1 13C1 7.27045 1 4.40569 2.58163 2.62575C3.46342 1.63338 4.64485 1.19429 6.40001 1" stroke="white" stroke-width="1.5" stroke-linecap="round" stroke-linejoin="round"/>
<path d="M9.66666 16.2407C9.79243 16.6835 10.046 17.1666 10.7082 17.1666C11.8541 17.1666 12.1406 16.2407 13 13C13.8594 9.75924 14.1459 8.83331 15.2917 8.83331C15.9539 8.83331 16.2076 9.31645 16.3333 9.75924M11.6111 11.8426H15.2917" stroke="white" stroke-width="1.5" stroke-linecap="round" stroke-linejoin="round"/>
<path d="M5.08334 13C5.08334 9.26803 5.08334 7.40205 6.24271 6.24268C7.40209 5.08331 9.26806 5.08331 13 5.08331C16.7319 5.08331 18.5979 5.08331 19.7573 6.24268C20.9167 7.40205 20.9167 9.26803 20.9167 13C20.9167 16.7319 20.9167 18.5979 19.7573 19.7573C18.5979 20.9166 16.7319 20.9166 13 20.9166C9.26806 20.9166 7.40209 20.9166 6.24271 19.7573C5.08334 18.5979 5.08334 16.7319 5.08334 13Z" stroke="white" stroke-width="1.5" stroke-linejoin="round"/>
</svg>
